humanity-icon-theme/Humanity/apps/24/gnome-display-properties.svg

<?xml version="1.0" encoding="UTF-8" standalone="no"?>
<!-- Created with Inkscape (http://www.inkscape.org/) -->

<svg
   xmlns:svg="http://www.w3.org/2000/svg"
   xmlns="http://www.w3.org/2000/svg"
   xmlns:xlink="http://www.w3.org/1999/xlink"
   version="1.0"
   width="24"
   height="24"
   id="svg2666">
  <defs
     id="defs2668">
    <linearGradient
       id="linearGradient6718">
      <stop
         id="stop6720"
         style="stop-color:#141414;stop-opacity:1"
         offset="0" />
      <stop
         id="stop6722"
         style="stop-color:#3c3c3c;stop-opacity:1"
         offset="1" />
    </linearGradient>
    <linearGradient
       x1="24.875"
       y1="29"
       x2="24.999996"
       y2="3.0000005"
       id="linearGradient5778"
       xlink:href="#linearGradient6718"
       gradientUnits="userSpaceOnUse"
       gradientTransform="matrix(0.4634248,0,0,0.5200166,0.8778061,1.6797305)" />
    <linearGradient
       id="linearGradient6712">
      <stop
         id="stop6714"
         style="stop-color:#3c3c3c;stop-opacity:1"
         offset="0" />
      <stop
         id="stop6716"
         style="stop-color:#1e1e1e;stop-opacity:1"
         offset="1" />
    </linearGradient>
    <radialGradient
       cx="12.244348"
       cy="4.8630676"
       r="20.999998"
       fx="12.244348"
       fy="4.8630676"
       id="radialGradient5776"
       xlink:href="#linearGradient6712"
       gradientUnits="userSpaceOnUse"
       gradientTransform="matrix(0.6409306,0.00928188,-0.00596755,0.5188561,-1.2666132,3.7779665)" />
    <linearGradient
       id="linearGradient6592">
      <stop
         id="stop6594"
         style="stop-color:white;stop-opacity:0.27450982"
         offset="0" />
      <stop
         id="stop6596"
         style="stop-color:white;stop-opacity:0"
         offset="1" />
    </linearGradient>
    <linearGradient
       x1="12.9375"
       y1="8.4375"
       x2="15.25"
       y2="19.8125"
       id="linearGradient5773"
       xlink:href="#linearGradient6592"
       gradientUnits="userSpaceOnUse"
       gradientTransform="matrix(0.4285714,0,0,0.533333,1.7142856,2.4000008)" />
    <linearGradient
       id="linearGradient7025">
      <stop
         id="stop7027"
         style="stop-color:#e6ce46;stop-opacity:1"
         offset="0" />
      <stop
         id="stop7029"
         style="stop-color:#d6ba1c;stop-opacity:1"
         offset="1" />
    </linearGradient>
    <linearGradient
       x1="13.630114"
       y1="28.5"
       x2="25.208096"
       y2="41.180992"
       id="linearGradient5770"
       xlink:href="#linearGradient7025"
       gradientUnits="userSpaceOnUse"
       gradientTransform="matrix(0.4488907,0,0,0.4502247,0.2266203,-2.831405)" />
    <linearGradient
       id="linearGradient6349">
      <stop
         id="stop6351"
         style="stop-color:#505050;stop-opacity:1"
         offset="0" />
      <stop
         id="stop6353"
         style="stop-color:#a0a0a0;stop-opacity:1"
         offset="0.29325277" />
      <stop
         id="stop6355"
         style="stop-color:#aaa;stop-opacity:1"
         offset="0.41122407" />
      <stop
         id="stop6357"
         style="stop-color:#dcdcdc;stop-opacity:1"
         offset="0.59180349" />
      <stop
         id="stop6359"
         style="stop-color:#6e6e6e;stop-opacity:1"
         offset="1" />
    </linearGradient>
    <linearGradient
       id="linearGradient6337">
      <stop
         id="stop6339"
         style="stop-color:#787878;stop-opacity:1"
         offset="0" />
      <stop
         id="stop6341"
         style="stop-color:#bebebe;stop-opacity:1"
         offset="0.2871837" />
      <stop
         id="stop6343"
         style="stop-color:#c8c8c8;stop-opacity:1"
         offset="0.42336658" />
      <stop
         id="stop6345"
         style="stop-color:#fafafa;stop-opacity:1"
         offset="0.58037585" />
      <stop
         id="stop6347"
         style="stop-color:#8c8c8c;stop-opacity:1"
         offset="1" />
    </linearGradient>
    <linearGradient
       id="linearGradient10691">
      <stop
         id="stop10693"
         style="stop-color:black;stop-opacity:1"
         offset="0" />
      <stop
         id="stop10695"
         style="stop-color:black;stop-opacity:0"
         offset="1" />
    </linearGradient>
    <linearGradient
       id="linearGradient6602">
      <stop
         id="stop6604"
         style="stop-color:white;stop-opacity:1"
         offset="0" />
      <stop
         id="stop6606"
         style="stop-color:white;stop-opacity:0"
         offset="1" />
    </linearGradient>
    <linearGradient
       id="linearGradient6544">
      <stop
         id="stop6546"
         style="stop-color:#f0f0f0;stop-opacity:1"
         offset="0" />
      <stop
         id="stop6548"
         style="stop-color:#d2d2d2;stop-opacity:1"
         offset="1" />
    </linearGradient>
    <radialGradient
       cx="0.99999994"
       cy="5.5642838"
       r="22.999998"
       fx="0.99999994"
       fy="5.5642838"
       id="radialGradient5540"
       xlink:href="#linearGradient6602"
       gradientUnits="userSpaceOnUse"
       gradientTransform="matrix(0.4666683,0,0,0.3373329,0.7999606,4.6026778)" />
    <linearGradient
       x1="20.147005"
       y1="-0.00049710274"
       x2="20.103531"
       y2="31.98299"
       id="linearGradient5543"
       xlink:href="#linearGradient6544"
       gradientUnits="userSpaceOnUse"
       gradientTransform="matrix(0.4901603,0,0,0.5489643,0.236014,1.2167076)" />
    <linearGradient
       x1="320.04437"
       y1="85.486282"
       x2="320.04437"
       y2="95.485977"
       id="linearGradient5547"
       xlink:href="#linearGradient6337"
       gradientUnits="userSpaceOnUse"
       gradientTransform="matrix(0.5274678,0,0,0.5000152,-156.8131,-24.74444)" />
    <linearGradient
       x1="22.124004"
       y1="34.485851"
       x2="22.124004"
       y2="44.486988"
       id="linearGradient5549"
       xlink:href="#linearGradient6349"
       gradientUnits="userSpaceOnUse"
       gradientTransform="matrix(0.5293689,0,0,0.4999433,-0.7117599,0.7590293)" />
    <radialGradient
       cx="6.702713"
       cy="73.615715"
       r="7.228416"
       fx="6.702713"
       fy="73.615715"
       id="radialGradient5552"
       xlink:href="#linearGradient10691"
       gradientUnits="userSpaceOnUse"
       gradientTransform="matrix(1.1067433,0,0,0.2075143,4.5818183,7.2236846)" />
  </defs>
  <path
     d="M 20,22.5 C 20,23.328428 16.418278,24 12,24 7.5817217,24 4,23.328428 4,22.5 4,21.671573 7.5817217,21 12,21 c 4.418278,0 8,0.671573 8,1.5 l 0,0 z"
     id="path2589"
     style="opacity:0.35;fill:url(#radialGradient5552);fill-opacity:1;fill-rule:nonzero;stroke:none;stroke-width:0.80000001;marker:none;visibility:visible;display:inline;overflow:visible" />
  <path
     d="m 9.5,16.506818 c 0,0 0,3.500103 0,3.500103 -0.011657,0.901015 -1.4135984,1.500047 -1.4135984,1.500047 -0.3963173,0.04422 -0.5934015,0.223008 -0.5934015,0.500017 0,0.27701 0.2668072,0.500016 0.5934015,0.500016 l 7.8133794,0 c 0.326595,0 0.593402,-0.223006 0.593402,-0.500016 0,-0.277009 -0.197086,-0.455801 -0.593402,-0.500017 0,0 -1.388124,-0.599032 -1.399781,-1.500047 0,0 0,-3.500103 0,-3.500103 l -5,0 z"
     id="path4675"
     style="fill:url(#linearGradient5547);fill-opacity:1;stroke:url(#linearGradient5549);stroke-width:1;stroke-linecap:round;stroke-linejoin:round;stroke-miterlimit:4;stroke-opacity:1;stroke-dasharray:none;stroke-dashoffset:0.50000001;display:inline;enable-background:new" />
  <rect
     width="23.000053"
     height="17.000053"
     x="0.49997333"
     y="1.4999733"
     id="rect2722"
     style="fill:url(#linearGradient5543);fill-opacity:1;stroke:#b4b4b4;stroke-width:0.99994665;stroke-linecap:round;stroke-linejoin:round;stroke-miterlimit:4;stroke-opacity:1;stroke-dasharray:none;stroke-dashoffset:0.50000001" />
  <rect
     width="21.000038"
     height="15.000038"
     rx="0"
     ry="0"
     x="1.4999807"
     y="2.4999812"
     id="rect4642"
     style="fill:none;stroke:url(#radialGradient5540);stroke-width:0.99996144;stroke-linecap:round;stroke-linejoin:round;stroke-miterlimit:4;stroke-opacity:1;stroke-dasharray:none;stroke-dashoffset:0.50000001;display:inline;enable-background:new" />
  <rect
     width="19.000408"
     height="13.000408"
     x="2.4997962"
     y="3.4997957"
     id="rect2716"
     style="fill:url(#radialGradient5776);fill-opacity:1;fill-rule:evenodd;stroke:url(#linearGradient5778);stroke-width:0.99959224;stroke-linecap:butt;stroke-linejoin:miter;stroke-miterlimit:4;stroke-opacity:1;stroke-dasharray:none;display:inline;enable-background:new" />
  <path
     d="M 3,4 21,4 21,8.2666686 3,12 3,4 z"
     id="rect6588"
     style="fill:url(#linearGradient5773);fill-opacity:1;stroke:none" />
  <path
     d="m 2.2466291,3.2466294 0,13.5067416 17.5067409,0 L 2.2466291,3.2466294 z M 4.9,8.7493734 l 7.072598,5.5027586 -7.072598,0 0,-5.5027586 z"
     id="path4319"
     style="fill:url(#linearGradient5770);fill-opacity:1;fill-rule:evenodd;stroke:#a38503;stroke-width:0.4932583;stroke-linecap:butt;stroke-linejoin:round;stroke-miterlimit:4;stroke-opacity:1;stroke-dasharray:none" />
</svg>

<?xml version="1.0" encoding="UTF-8" standalone="no"?>
<!-- Created with Inkscape (http://www.inkscape.org/) -->
<svg id="svg2666" xmlns="http://www.w3.org/2000/svg" height="24" width="24" version="1.0" xmlns:xlink="http://www.w3.org/1999/xlink">
 <defs id="defs2668">
  <linearGradient id="linearGradient5778" y2="3" gradientUnits="userSpaceOnUse" x2="25" gradientTransform="matrix(.46342 0 0 .52002 .87781 1.6797)" y1="29" x1="24.875">
   <stop id="stop6720" style="stop-color:#141414" offset="0"/>
   <stop id="stop6722" style="stop-color:#3c3c3c" offset="1"/>
  </linearGradient>
  <radialGradient id="radialGradient5776" gradientUnits="userSpaceOnUse" cy="4.8631" cx="12.244" gradientTransform="matrix(.64093 .0092819 -.0059676 .51886 -1.2666 3.778)" r="21">
   <stop id="stop6714" style="stop-color:#3c3c3c" offset="0"/>
   <stop id="stop6716" style="stop-color:#1e1e1e" offset="1"/>
  </radialGradient>
  <linearGradient id="linearGradient5773" y2="19.812" gradientUnits="userSpaceOnUse" x2="15.25" gradientTransform="matrix(.42857 0 0 .53333 1.7143 2.4)" y1="8.4375" x1="12.938">
   <stop id="stop6594" style="stop-color:#fff;stop-opacity:.27451" offset="0"/>
   <stop id="stop6596" style="stop-color:#fff;stop-opacity:0" offset="1"/>
  </linearGradient>
  <linearGradient id="linearGradient5770" y2="41.181" gradientUnits="userSpaceOnUse" x2="25.208" gradientTransform="matrix(.44889 0 0 .45022 .22662 -2.8314)" y1="28.5" x1="13.63">
   <stop id="stop7027" style="stop-color:#e6ce46" offset="0"/>
   <stop id="stop7029" style="stop-color:#d6ba1c" offset="1"/>
  </linearGradient>
  <radialGradient id="radialGradient5540" gradientUnits="userSpaceOnUse" cy="5.5643" cx="1" gradientTransform="matrix(.46667 0 0 .33733 .79996 4.6027)" r="23">
   <stop id="stop6604" style="stop-color:#fff" offset="0"/>
   <stop id="stop6606" style="stop-color:#fff;stop-opacity:0" offset="1"/>
  </radialGradient>
  <linearGradient id="linearGradient5543" y2="31.983" gradientUnits="userSpaceOnUse" x2="20.104" gradientTransform="matrix(.49016 0 0 .54896 .23601 1.2167)" y1="-.00049710" x1="20.147">
   <stop id="stop6546" style="stop-color:#f0f0f0" offset="0"/>
   <stop id="stop6548" style="stop-color:#d2d2d2" offset="1"/>
  </linearGradient>
  <linearGradient id="linearGradient5547" y2="95.486" gradientUnits="userSpaceOnUse" x2="320.04" gradientTransform="matrix(.52747 0 0 .50002 -156.81 -24.744)" y1="85.486" x1="320.04">
   <stop id="stop6339" style="stop-color:#787878" offset="0"/>
   <stop id="stop6341" style="stop-color:#bebebe" offset=".28718"/>
   <stop id="stop6343" style="stop-color:#c8c8c8" offset=".42337"/>
   <stop id="stop6345" style="stop-color:#fafafa" offset=".58038"/>
   <stop id="stop6347" style="stop-color:#8c8c8c" offset="1"/>
  </linearGradient>
  <linearGradient id="linearGradient5549" y2="44.487" gradientUnits="userSpaceOnUse" x2="22.124" gradientTransform="matrix(.52937 0 0 .49994 -.71176 .75903)" y1="34.486" x1="22.124">
   <stop id="stop6351" style="stop-color:#505050" offset="0"/>
   <stop id="stop6353" style="stop-color:#a0a0a0" offset=".29325"/>
   <stop id="stop6355" style="stop-color:#aaa" offset=".41122"/>
   <stop id="stop6357" style="stop-color:#dcdcdc" offset=".59180"/>
   <stop id="stop6359" style="stop-color:#6e6e6e" offset="1"/>
  </linearGradient>
  <radialGradient id="radialGradient5552" gradientUnits="userSpaceOnUse" cy="73.616" cx="6.7027" gradientTransform="matrix(1.1067 0 0 .20751 4.5818 7.2237)" r="7.2284">
   <stop id="stop10693" offset="0"/>
   <stop id="stop10695" style="stop-opacity:0" offset="1"/>
  </radialGradient>
 </defs>
 <path id="path2589" style="opacity:.35;fill:url(#radialGradient5552)" d="m20 22.5c0 0.828-3.582 1.5-8 1.5-4.4183 0-8-0.672-8-1.5s3.5817-1.5 8-1.5 8 0.67157 8 1.5z"/>
 <path id="path4675" style="stroke-linejoin:round;stroke-dashoffset:0.5;stroke:url(#linearGradient5549);stroke-linecap:round;enable-background:new;fill:url(#linearGradient5547)" d="m9.5 16.507v3.5001c-0.011657 0.90102-1.4136 1.5-1.4136 1.5-0.39632 0.04422-0.5934 0.22301-0.5934 0.50002s0.26681 0.50002 0.5934 0.50002h7.8134c0.3266 0 0.5934-0.22301 0.5934-0.50002s-0.19709-0.4558-0.5934-0.50002c0 0-1.3881-0.59903-1.3998-1.5v-3.5001h-5z"/>
 <rect id="rect2722" style="stroke-linejoin:round;stroke-dashoffset:0.5;stroke:#b4b4b4;stroke-linecap:round;stroke-width:.99995;fill:url(#linearGradient5543)" height="17" width="23" y="1.5" x=".49997"/>
 <rect id="rect4642" style="stroke-linejoin:round;stroke-width:.99996;stroke-dashoffset:0.5;stroke:url(#radialGradient5540);stroke-linecap:round;enable-background:new;fill:none" rx="0" ry="0" height="15" width="21" y="2.5" x="1.5"/>
 <rect id="rect2716" style="stroke-width:.99959;fill-rule:evenodd;stroke:url(#linearGradient5778);enable-background:new;fill:url(#radialGradient5776)" height="13" width="19" y="3.4998" x="2.4998"/>
 <path id="rect6588" style="fill:url(#linearGradient5773)" d="m3 4h18v4.2667l-18 3.7333v-8z"/>
 <path id="path4319" style="stroke-linejoin:round;fill-rule:evenodd;stroke:#a38503;stroke-width:.49326;fill:url(#linearGradient5770)" d="m2.2466 3.2466v13.507h17.507l-17.507-13.507zm2.6534 5.5028l7.0726 5.5028h-7.0726v-5.5028z"/>
</svg>
